X:177
T: IN DEM WALD STEHT EIN HAUS
N: F0312
O: Europa, Mitteleuropa, Deutschland
R: Jugend - Lied, Kinder -, Scherz -, Tanz - Lied
M: 3/8
L: 1/16
K: G
dd | d2BABc | d4
ed | cBAGFd | B4
BB | A2FAde | f2d2
AB | A2FAde | f2d2
D2 | d4D2 | d4
Ad | f4d2 | d4
d2 | gdB2Ad | G4

@@@ Tune index: 5608
